svgs/regular/otter.svg

<svg xmlns="http://www.w3.org/2000/svg" viewBox="0 0 640 512"><!-- Font Awesome Pro 6.0.0-alpha2 by @fontawesome - https://fontawesome.com License - https://fontawesome.com/license (Commercial License) --><path d="M496 72C487.125 72 480 79.125 480 88S487.125 104 496 104S512 96.875 512 88S504.875 72 496 72ZM576 32H566.5L557.875 23.375C542.75 8.25 522.625 0 501.25 0H480.75C466.875 0 453.125 3.625 441 10.5L291.125 96H272.375C157.5 96 64 189.25 64 304L64.125 368.75C28.125 372.75 0 403 0 440C0 479.75 32.25 512 72 512H232C245.25 512 256 501.25 256 488S245.25 464 232 464H72C58.75 464 48 453.25 48 440S58.75 416 72 416H304.5C331 416 352.5 394.5 352.5 368C352.5 348.5 345.5 330.75 333.875 316.875L347.875 309.5L388 389.5C396.125 405.75 412.75 416 430.875 416H529C555.5 416 577 394.5 577 368C577 323.875 541.125 288 496.875 288H480.375L461 249.375L492.125 232.875C503 227.125 515.375 224 527.875 224C589.75 224 640 173.75 640 112V96C640 60.75 611.25 32 576 32ZM527.875 176C507.5 176 487.5 181 469.625 190.5L465.875 192.5L482.625 170.75C491.625 159 505.875 152 520.625 152H577.5C565.75 166.5 548 176 527.875 176ZM592 112C592 114.75 591.5 117.375 591.25 120H520.625C496 120 472.25 131.625 457.25 151.25L397.875 227L399 228L397 229L450.75 336H496.875C514.625 336 529 350.375 529 368H430.875L368.75 244L195.375 336H272.375C290.125 336 304.5 350.375 304.5 368H112V304C112 215.625 183.75 144 272.375 144H303.75L464.875 52.25C469.625 49.5 475.125 48 480.75 48H501.25C509.875 48 517.875 51.375 524 57.375L546.625 80H576C584.875 80 592 87.125 592 96V112Z"/></svg>

<svg xmlns="http://www.w3.org/2000/svg" viewBox="0 0 640 512"><!--! Font Awesome Pro 6.0.0-alpha3 by @fontawesome - https://fontawesome.com License - https://fontawesome.com/license (Commercial License) --><path d="M496 72c-8.875 0-16 7.125-16 16s7.125 16 16 16S512 96.88 512 88S504.9 72 496 72zM575.1 32H566.5l-8.625-8.625C542.8 8.25 522.6 0 501.2 0h-20.5c-13.88 0-27.63 3.625-39.75 10.5L291.1 96H272.4C157.5 96 64 189.2 64 304l.125 64.75C28.12 372.8 0 403 0 440C0 479.8 32.25 512 72 512h160C245.2 512 256 501.2 256 488S245.2 464 232 464h-160c-13.25 0-24-10.75-24-24S58.75 416 72 416h232.5c26.5 0 48-21.5 48-48c0-19.5-7-37.25-18.62-51.13l14-7.375l40.13 80C396.1 405.8 412.8 416 430.9 416H529c26.5 0 48-21.5 48-48c0-44.13-35.88-80-80.13-80h-16.5L461 249.4l31.12-16.5C503 227.1 515.4 224 527.9 224C589.8 224 640 173.8 640 112L640 96C640 60.75 611.2 32 575.1 32zM527.9 176c-20.38 0-40.38 5-58.25 14.5l-3.75 2l16.75-21.75C491.6 159 505.9 152 520.6 152h56.88C565.8 166.5 548 176 527.9 176zM592 112c0 2.75-.5 5.375-.75 8h-70.63C496 120 472.2 131.6 457.2 151.2L397.9 227L399 228l-2 1L450.8 336h46.12c17.75 0 32.13 14.38 32.13 32h-98.13l-62.12-124L195.4 336h76.1c17.75 0 32.13 14.38 32.13 32H112v-64c0-88.38 71.75-160 160.4-160h31.38l161.1-91.75C469.6 49.5 475.1 48 480.8 48h20.5c8.625 0 16.63 3.375 22.75 9.375L546.6 80H576c8.875 0 16 7.125 16 16V112z"/></svg>
